X: 4145
T: BETTY'S APRON
R: Strathspey.
%R: strathspey
B: James Kerr "Merry Melodies" v.4 p.17 #145
Z: 2016 John Chambers <jc:trillian.mit.edu>
M: C
L: 1/8
K: Am
[|\
A,3B, C<C C>D | E>Ac>B A3E |\
A,3B, C<C C>E | F>DE>C B,3E |\
A,3B, C<C C>D | E>Ac>B A3c |\
d>ef>d e>cA>c | (3dcB (3cBA ^G<B B>e |]
[|\
e<a a>g e<a a>g | (3edc (3dcB A3e |\
d<g g>e d<g g>e | (3dcB (3cBA G3f |\
e<a a>g e<a a>g | (3edc (3dcB A3e |\
d>ef>d c>de>a | e>dc>B A3z |]

%%sep 1 1 500
%%sep 1 1 500

